X:1
P: The Haughs O' Cromdale
C: Hunter collection, arr. T. Traub 2-24-2004
R: Strathspey
M: 4/4
K: Em
L: 1/8
|: e|"Em"B<EE>F B>AF>A|"Em"B<EE>F "D"D>EF>A|"Em"B<EE>F B>AF>A|"G"B>d "Bm"B/A/G/F/ "Em"E2 E:|
F|"D"De d/^c/B/c/ d2|F<AA>B B/A/G/F/ A2|"Em"B<ee>f g>fe>d|"G"B<d "Bm"B/A/G/F/ "Em"E2 E>F|
"D"De d/^c/B/c/ d2|F<AA>B B/A/G/F/ A2|"Em"B<ee>f g>ef>d|"G"B<d "Bm"B/A/G/F/ "Em"E2 E |]
